Flat-Remix-Dark/apps/scalable/fluxgui.svg

<svg xmlns="http://www.w3.org/2000/svg" xmlns:xlink="http://www.w3.org/1999/xlink" width="384pt" height="384pt" version="1.1" viewBox="0 0 384 384">
 <defs>
  <linearGradient id="linearGradient1044">
   <stop style="stop-color:#3a8ab8" offset="0"/>
   <stop style="stop-color:#4cc7cc" offset="1"/>
  </linearGradient>
  <filter id="alpha" width="100%" height="100%" x="0%" y="0%" filterUnits="objectBoundingBox">
   <feColorMatrix in="SourceGraphic" type="matrix" values="0 0 0 0 1 0 0 0 0 1 0 0 0 0 1 0 0 0 1 0"/>
  </filter>
  <mask id="mask0">
   <g filter="url(#alpha)">
    <rect width="384" height="384" x="0" y="0" style="fill:rgb(0%,0%,0%);fill-opacity:0.2"/>
   </g>
  </mask>
  <clipPath id="clip1">
   <rect width="384" height="384" x="0" y="0"/>
  </clipPath>
  <g id="surface5" clip-path="url(#clip1)">
   <path style="fill:rgb(0%,0%,0%)" d="M 359.742188 190.96875 C 357.058594 281.710938 282.777344 353.902344 191.996094 354 C 101.996094 353.9375 28.03125 282.957031 24.265625 193.035156 C 24.152344 194.6875 24.0625 196.34375 24 198.003906 C 24 290.785156 99.214844 366 191.996094 366 C 284.78125 366 359.996094 290.785156 359.996094 198.003906 C 359.960938 195.65625 359.875 193.3125 359.742188 190.96875 Z M 359.742188 190.96875"/>
  </g>
  <mask id="mask1">
   <g filter="url(#alpha)">
    <rect width="384" height="384" x="0" y="0" style="fill:rgb(0%,0%,0%);fill-opacity:0.2"/>
   </g>
  </mask>
  <clipPath id="clip2">
   <rect width="384" height="384" x="0" y="0"/>
  </clipPath>
  <g id="surface8" clip-path="url(#clip2)">
   <path style="fill:rgb(0%,0%,0%)" d="M 299.992188 138.007812 C 299.992188 164.515625 278.503906 186.007812 251.992188 186.007812 C 225.484375 186.007812 203.992188 164.515625 203.992188 138.007812 C 203.992188 111.496094 225.484375 90.007812 251.992188 90.007812 C 278.503906 90.007812 299.992188 111.496094 299.992188 138.007812 Z M 299.992188 138.007812"/>
  </g>
  <mask id="mask2">
   <g filter="url(#alpha)">
    <rect width="384" height="384" x="0" y="0" style="fill:rgb(0%,0%,0%);fill-opacity:0.2"/>
   </g>
  </mask>
  <clipPath id="clip3">
   <rect width="384" height="384" x="0" y="0"/>
  </clipPath>
  <g id="surface11" clip-path="url(#clip3)">
   <path style="fill:rgb(100.000%,100.000%,100.000%)" d="M 192 24 C 98.929688 24 24 98.929688 24 192 C 24 192.683594 24.066406 193.351562 24.105469 194.027344 C 26.207031 102.8125 100.261719 30 192 30 C 283.738281 30 357.792969 102.8125 359.894531 194.027344 C 359.929688 193.351562 360 192.683594 360 192 C 360 98.929688 285.070312 24 192 24 Z M 27.351562 237.65625 C 27.527344 238.519531 27.796875 239.382812 27.984375 240.246094 C 27.796875 239.382812 27.527344 238.519531 27.351562 237.65625 Z M 31.242188 240.960938 C 31.765625 242.6875 32.425781 244.367188 33 246.070312 C 32.425781 244.367188 31.765625 242.6875 31.242188 240.960938 Z M 27.351562 243.65625 C 27.527344 244.519531 27.796875 245.382812 27.984375 246.246094 C 27.796875 245.382812 27.527344 244.519531 27.351562 243.65625 Z M 31.242188 246.960938 C 31.765625 248.6875 32.425781 250.367188 33 252.070312 C 32.425781 250.367188 31.765625 248.6875 31.242188 246.960938 Z M 31.242188 252.960938 C 31.765625 254.6875 32.425781 256.367188 33 258.070312 C 32.425781 256.367188 31.765625 254.6875 31.242188 252.960938 Z M 31.242188 258.960938 C 31.765625 260.6875 32.425781 262.367188 33 264.070312 C 32.425781 262.367188 31.765625 260.6875 31.242188 258.960938 Z M 36.492188 267.679688 C 37.253906 269.539062 38.105469 271.386719 38.929688 273.222656 C 38.105469 271.386719 37.253906 269.539062 36.492188 267.679688 Z M 36.492188 273.679688 C 37.253906 275.539062 38.105469 277.386719 38.929688 279.222656 C 38.105469 277.386719 37.253906 275.539062 36.492188 273.679688 Z M 42.960938 281.601562 C 43.925781 283.460938 44.929688 285.285156 45.960938 287.109375 C 44.925781 285.285156 43.929688 283.460938 42.960938 281.601562 Z M 42.960938 287.601562 C 43.929688 289.460938 44.925781 291.285156 45.960938 293.109375 C 44.929688 291.285156 43.925781 289.460938 42.960938 287.601562 Z M 50.8125 295.078125 C 51.910156 296.78125 53.003906 298.496094 54.164062 300.164062 C 53.003906 298.496094 51.914062 296.78125 50.8125 295.078125 Z M 50.8125 301.078125 C 51.914062 302.78125 53.003906 304.496094 54.164062 306.164062 C 53.003906 304.496094 51.910156 302.78125 50.8125 301.078125 Z M 59.859375 307.746094 C 61.042969 309.246094 62.1875 310.792969 63.421875 312.257812 C 62.183594 310.792969 61.046875 309.246094 59.859375 307.746094 Z M 59.859375 313.746094 C 61.046875 315.246094 62.183594 316.792969 63.421875 318.257812 C 62.1875 316.792969 61.042969 315.246094 59.859375 313.746094 Z M 70.734375 320.296875 C 71.710938 321.316406 72.636719 322.394531 73.640625 323.390625 C 72.636719 322.394531 71.714844 321.316406 70.734375 320.296875 Z M 70.734375 326.296875 C 71.714844 327.316406 72.636719 328.394531 73.640625 329.390625 C 72.636719 328.394531 71.710938 327.316406 70.734375 326.296875 Z M 97.078125 330.75 C 98.582031 331.78125 100.15625 332.671875 101.695312 333.65625 C 100.15625 332.671875 98.582031 331.78125 97.078125 330.75 Z M 97.078125 336.75 C 98.582031 337.78125 100.15625 338.671875 101.695312 339.65625 C 100.15625 338.671875 98.582031 337.78125 97.078125 336.75 Z M 97.078125 342.75 C 98.582031 343.78125 100.15625 344.671875 101.695312 345.65625 C 100.15625 344.671875 98.582031 343.78125 97.078125 342.75 Z M 110.085938 344.753906 C 111.851562 345.726562 113.675781 346.628906 115.476562 347.554688 C 113.671875 346.628906 111.851562 345.738281 110.085938 344.753906 Z M 97.078125 348.75 C 98.582031 349.78125 100.15625 350.671875 101.695312 351.65625 C 100.15625 350.671875 98.582031 349.78125 97.078125 348.75 Z M 153.632812 355.476562 C 156.105469 356.050781 158.542969 356.648438 161.0625 357.117188 C 158.554688 356.648438 156.105469 356.050781 153.632812 355.476562 Z M 110.085938 356.753906 C 111.851562 357.738281 113.671875 358.628906 115.476562 359.554688 C 113.675781 358.628906 111.851562 357.726562 110.085938 356.753906 Z M 153.632812 361.476562 C 156.105469 362.050781 158.554688 362.648438 161.0625 363.117188 C 158.542969 362.648438 156.105469 362.050781 153.632812 361.476562 Z M 138.539062 363.234375 C 140.578125 363.90625 142.628906 364.566406 144.703125 365.179688 C 142.613281 364.566406 140.578125 363.90625 138.539062 363.234375 Z M 163.300781 363.515625 C 167.5625 364.246094 171.859375 364.855469 176.226562 365.261719 C 171.859375 364.855469 167.5625 364.246094 163.300781 363.515625 Z M 124.054688 363.679688 C 125.914062 364.496094 127.785156 365.242188 129.679688 366 C 127.785156 365.242188 125.902344 364.496094 124.054688 363.679688 Z M 153.632812 367.476562 C 156.105469 368.050781 158.554688 368.648438 161.0625 369.117188 C 158.542969 368.648438 156.105469 368.050781 153.632812 367.476562 Z M 138.539062 369.234375 C 140.578125 369.90625 142.613281 370.566406 144.703125 371.179688 C 142.628906 370.566406 140.578125 369.90625 138.539062 369.234375 Z M 153.632812 373.476562 C 156.105469 374.050781 158.542969 374.648438 161.0625 375.117188 C 158.554688 374.648438 156.105469 374.050781 153.632812 373.476562 Z M 163.300781 375.515625 C 167.5625 376.246094 171.859375 376.855469 176.226562 377.261719 C 171.859375 376.855469 167.5625 376.246094 163.300781 375.515625 Z M 163.300781 375.515625"/>
  </g>
  <linearGradient id="linearGradient1046" x1="135.764" x2="239.314" y1="328.774" y2="186.106" gradientUnits="userSpaceOnUse" xlink:href="#linearGradient1044"/>
 </defs>
 <use width="100%" height="100%" x="0" y="0" mask="url(#mask0)" xlink:href="#surface5"/>
 <path d="M 191.98828,24 C 99.207031,24.003906 24,99.21875 24,192 c 0.04687,16.26172 2.453125,32.42969 7.148438,48 H 352.91016 c 4.66796,-15.57422 7.05468,-31.74219 7.07812,-48 C 359.98828,99.21875 284.78125,24.003906 192,24 Z m 155.91797,230.23828 c -1.48438,3.66016 -3.10156,7.26953 -4.83984,10.81641 1.73828,-3.54688 3.35546,-7.15625 4.83984,-10.81641 z m 0,0" style="fill:#f8de66"/>
 <use width="100%" height="100%" x="0" y="0" mask="url(#mask1)" xlink:href="#surface8"/>
 <path d="m 299.99219,132.00781 c 0,26.50781 -21.48828,48 -48,48 -26.50782,0 -48,-21.49219 -48,-48 0,-26.51172 21.49218,-47.999998 48,-47.999998 26.51172,0 48,21.488278 48,47.999998 z m 0,0" style="fill:#fd7d00;stroke-width:6.45;stroke:#ffffff"/>
 <use width="100%" height="100%" x="0" y="0" mask="url(#mask2)" xlink:href="#surface11"/>
 <path style="opacity:0.3" d="m 31.148444,232.5 c 21.21094,71.14844 86.605466,119.93359 160.843746,120 74.26953,-0.0352 139.69921,-48.82813 160.91796,-120 C 255.99751,203.88685 228.7136,4.909247 31.148444,232.5 Z"/>
 <path d="M 31.148438,240 C 52.359375,311.14844 117.75391,359.93359 191.99219,360 266.26172,359.96484 331.69141,311.17187 352.91016,240 255.99751,211.38685 228.71361,12.409236 31.148438,240 Z" style="fill:url(#linearGradient1046)"/>
</svg>

<svg xmlns="http://www.w3.org/2000/svg" xmlns:xlink="http://www.w3.org/1999/xlink" width="384pt" height="384pt" version="1.1" viewBox="0 0 384 384"> <defs> <filter id="alpha" width="100%" height="100%" x="0%" y="0%" filterUnits="objectBoundingBox"> <feColorMatrix in="SourceGraphic" type="matrix" values="0 0 0 0 1 0 0 0 0 1 0 0 0 0 1 0 0 0 1 0"/> </filter> <mask id="mask0"> <g filter="url(#alpha)"> <rect width="384" height="384" x="0" y="0" style="fill:rgb(0%,0%,0%);fill-opacity:0.2"/> </g> </mask> <clipPath id="clip1"> <rect width="384" height="384" x="0" y="0"/> </clipPath> <g id="surface5" clip-path="url(#clip1)"> <path style="fill:rgb(0%,0%,0%)" d="M 359.742188 190.96875 C 357.058594 281.710938 282.777344 353.902344 191.996094 354 C 101.996094 353.9375 28.03125 282.957031 24.265625 193.035156 C 24.152344 194.6875 24.0625 196.34375 24 198.003906 C 24 290.785156 99.214844 366 191.996094 366 C 284.78125 366 359.996094 290.785156 359.996094 198.003906 C 359.960938 195.65625 359.875 193.3125 359.742188 190.96875 Z M 359.742188 190.96875"/> </g> <mask id="mask1"> <g filter="url(#alpha)"> <rect width="384" height="384" x="0" y="0" style="fill:rgb(0%,0%,0%);fill-opacity:0.2"/> </g> </mask> <clipPath id="clip2"> <rect width="384" height="384" x="0" y="0"/> </clipPath> <g id="surface8" clip-path="url(#clip2)"> <path style="fill:rgb(0%,0%,0%)" d="M 299.992188 138.007812 C 299.992188 164.515625 278.503906 186.007812 251.992188 186.007812 C 225.484375 186.007812 203.992188 164.515625 203.992188 138.007812 C 203.992188 111.496094 225.484375 90.007812 251.992188 90.007812 C 278.503906 90.007812 299.992188 111.496094 299.992188 138.007812 Z M 299.992188 138.007812"/> </g> <mask id="mask2"> <g filter="url(#alpha)"> <rect width="384" height="384" x="0" y="0" style="fill:rgb(0%,0%,0%);fill-opacity:0.2"/> </g> </mask> <clipPath id="clip3"> <rect width="384" height="384" x="0" y="0"/> </clipPath> <g id="surface11" clip-path="url(#clip3)"> <path style="fill:rgb(100.000%,100.000%,100.000%)" d="M 192 24 C 98.929688 24 24 98.929688 24 192 C 24 192.683594 24.066406 193.351562 24.105469 194.027344 C 26.207031 102.8125 100.261719 30 192 30 C 283.738281 30 357.792969 102.8125 359.894531 194.027344 C 359.929688 193.351562 360 192.683594 360 192 C 360 98.929688 285.070312 24 192 24 Z M 27.351562 237.65625 C 27.527344 238.519531 27.796875 239.382812 27.984375 240.246094 C 27.796875 239.382812 27.527344 238.519531 27.351562 237.65625 Z M 31.242188 240.960938 C 31.765625 242.6875 32.425781 244.367188 33 246.070312 C 32.425781 244.367188 31.765625 242.6875 31.242188 240.960938 Z M 27.351562 243.65625 C 27.527344 244.519531 27.796875 245.382812 27.984375 246.246094 C 27.796875 245.382812 27.527344 244.519531 27.351562 243.65625 Z M 31.242188 246.960938 C 31.765625 248.6875 32.425781 250.367188 33 252.070312 C 32.425781 250.367188 31.765625 248.6875 31.242188 246.960938 Z M 31.242188 252.960938 C 31.765625 254.6875 32.425781 256.367188 33 258.070312 C 32.425781 256.367188 31.765625 254.6875 31.242188 252.960938 Z M 31.242188 258.960938 C 31.765625 260.6875 32.425781 262.367188 33 264.070312 C 32.425781 262.367188 31.765625 260.6875 31.242188 258.960938 Z M 36.492188 267.679688 C 37.253906 269.539062 38.105469 271.386719 38.929688 273.222656 C 38.105469 271.386719 37.253906 269.539062 36.492188 267.679688 Z M 36.492188 273.679688 C 37.253906 275.539062 38.105469 277.386719 38.929688 279.222656 C 38.105469 277.386719 37.253906 275.539062 36.492188 273.679688 Z M 42.960938 281.601562 C 43.925781 283.460938 44.929688 285.285156 45.960938 287.109375 C 44.925781 285.285156 43.929688 283.460938 42.960938 281.601562 Z M 42.960938 287.601562 C 43.929688 289.460938 44.925781 291.285156 45.960938 293.109375 C 44.929688 291.285156 43.925781 289.460938 42.960938 287.601562 Z M 50.8125 295.078125 C 51.910156 296.78125 53.003906 298.496094 54.164062 300.164062 C 53.003906 298.496094 51.914062 296.78125 50.8125 295.078125 Z M 50.8125 301.078125 C 51.914062 302.78125 53.003906 304.496094 54.164062 306.164062 C 53.003906 304.496094 51.910156 302.78125 50.8125 301.078125 Z M 59.859375 307.746094 C 61.042969 309.246094 62.1875 310.792969 63.421875 312.257812 C 62.183594 310.792969 61.046875 309.246094 59.859375 307.746094 Z M 59.859375 313.746094 C 61.046875 315.246094 62.183594 316.792969 63.421875 318.257812 C 62.1875 316.792969 61.042969 315.246094 59.859375 313.746094 Z M 70.734375 320.296875 C 71.710938 321.316406 72.636719 322.394531 73.640625 323.390625 C 72.636719 322.394531 71.714844 321.316406 70.734375 320.296875 Z M 70.734375 326.296875 C 71.714844 327.316406 72.636719 328.394531 73.640625 329.390625 C 72.636719 328.394531 71.710938 327.316406 70.734375 326.296875 Z M 97.078125 330.75 C 98.582031 331.78125 100.15625 332.671875 101.695312 333.65625 C 100.15625 332.671875 98.582031 331.78125 97.078125 330.75 Z M 97.078125 336.75 C 98.582031 337.78125 100.15625 338.671875 101.695312 339.65625 C 100.15625 338.671875 98.582031 337.78125 97.078125 336.75 Z M 97.078125 342.75 C 98.582031 343.78125 100.15625 344.671875 101.695312 345.65625 C 100.15625 344.671875 98.582031 343.78125 97.078125 342.75 Z M 110.085938 344.753906 C 111.851562 345.726562 113.675781 346.628906 115.476562 347.554688 C 113.671875 346.628906 111.851562 345.738281 110.085938 344.753906 Z M 97.078125 348.75 C 98.582031 349.78125 100.15625 350.671875 101.695312 351.65625 C 100.15625 350.671875 98.582031 349.78125 97.078125 348.75 Z M 153.632812 355.476562 C 156.105469 356.050781 158.542969 356.648438 161.0625 357.117188 C 158.554688 356.648438 156.105469 356.050781 153.632812 355.476562 Z M 110.085938 356.753906 C 111.851562 357.738281 113.671875 358.628906 115.476562 359.554688 C 113.675781 358.628906 111.851562 357.726562 110.085938 356.753906 Z M 153.632812 361.476562 C 156.105469 362.050781 158.554688 362.648438 161.0625 363.117188 C 158.542969 362.648438 156.105469 362.050781 153.632812 361.476562 Z M 138.539062 363.234375 C 140.578125 363.90625 142.628906 364.566406 144.703125 365.179688 C 142.613281 364.566406 140.578125 363.90625 138.539062 363.234375 Z M 163.300781 363.515625 C 167.5625 364.246094 171.859375 364.855469 176.226562 365.261719 C 171.859375 364.855469 167.5625 364.246094 163.300781 363.515625 Z M 124.054688 363.679688 C 125.914062 364.496094 127.785156 365.242188 129.679688 366 C 127.785156 365.242188 125.902344 364.496094 124.054688 363.679688 Z M 153.632812 367.476562 C 156.105469 368.050781 158.554688 368.648438 161.0625 369.117188 C 158.542969 368.648438 156.105469 368.050781 153.632812 367.476562 Z M 138.539062 369.234375 C 140.578125 369.90625 142.613281 370.566406 144.703125 371.179688 C 142.628906 370.566406 140.578125 369.90625 138.539062 369.234375 Z M 153.632812 373.476562 C 156.105469 374.050781 158.542969 374.648438 161.0625 375.117188 C 158.554688 374.648438 156.105469 374.050781 153.632812 373.476562 Z M 163.300781 375.515625 C 167.5625 376.246094 171.859375 376.855469 176.226562 377.261719 C 171.859375 376.855469 167.5625 376.246094 163.300781 375.515625 Z M 163.300781 375.515625"/> </g> </defs> <g> <use mask="url(#mask0)" xlink:href="#surface5"/> <path style="fill:rgb(97.254%,87.058%,40.784%)" d="M 191.988281 24 C 99.207031 24.003906 24 99.21875 24 192 C 24.046875 208.261719 26.453125 224.429688 31.148438 240 L 352.910156 240 C 357.578125 224.425781 359.964844 208.257812 359.988281 192 C 359.988281 99.21875 284.78125 24.003906 192 24 Z M 347.90625 254.238281 C 346.421875 257.898438 344.804688 261.507812 343.066406 265.054688 C 344.804688 261.507812 346.421875 257.898438 347.90625 254.238281 Z M 347.90625 254.238281"/> <path style="fill:rgb(23.137%,54.509%,72.156%)" d="M 31.148438 240 C 52.359375 311.148438 117.753906 359.933594 191.992188 360 C 266.261719 359.964844 331.691406 311.171875 352.910156 240 Z M 31.148438 240"/> <use mask="url(#mask1)" xlink:href="#surface8"/> <path style="fill:rgb(99.215%,49.019%,0%)" d="M 299.992188 132.007812 C 299.992188 158.515625 278.503906 180.007812 251.992188 180.007812 C 225.484375 180.007812 203.992188 158.515625 203.992188 132.007812 C 203.992188 105.496094 225.484375 84.007812 251.992188 84.007812 C 278.503906 84.007812 299.992188 105.496094 299.992188 132.007812 Z M 299.992188 132.007812"/> <use mask="url(#mask2)" xlink:href="#surface11"/> </g> </svg>
